X: 21
T:Les Poules Huppes
M:3/8
L:1/16
C:Chabenat
S:French Creek
K:F
D2- DF ED|A4A=B|c=B Ad cd|c=B AB AG|D2- DF ED|A4 A=B|!
c=B Ad cd|1A6:||2A4de||f2 Af Af|B4de|fd gf ed|!
^c2 d2 de|f2 Af Af|B4de|fd gf e^c|1d4de:||2d6||
